X: 5
T: Lad O'Beirne's
R: reel
M: 4/4
L: 1/8
K: Gmaj
DG~G2 DGBG | AdBA AGEG | DGGF GABd | egdg edge |
dB~B2 dBGE | cE~E2 GEDB, | DEGA ~B2 Bc |[1 dBAd BAGE :|[2 dBAc BAGA||
Bdd^c ~d2Bd | egdg edge | dB~B2 dBGE | cE~E2 GEDd |
Bdd^c ~d2ef | ~g2gf gedB | DEGA BABc |[1 dBAd BAGA :|[2 dBAd BAGE|]


Tune 406	Setting 406

